X:315
T: A LIEDLA Z SINGA
N: E1466
O: Europa, Mitteleuropa, Deutschland, Bayern, Landshut
R: Staende -, Jaeger - Lied, Wilderer
M: 3/4
L: 1/8
K: F
c2 | d2B3d | c2A3
c | B2G2GB | B2A2z
c | d2B2d2 | c2A3
c | B2G2EG | F2A2
c2 | B2G2G2 | F4

@@@ Tune index: 4999
